X:25
T:Anglais efter Jularpa-Sven
T:(SvL Skne nr. 25)
R:Anglais
B:Svenska Ltar Skne
Z:Patrik Mnsson, 2009-01-15
O:Glimkra, Skne
S:efter SvenAkesson|Sven kesson
M:2/4
L:1/16
K:Eb
|: e4 B4 | g4 e4 | b2bg e2eg | B2cd e4 :]
K:Bb
|: dfbg gfdf | fece edcB | dfbg gfdf | (fe)cA B4 :|
